!!!COM: Georges Bizet
!!!CNT: Francais
!!!TXO: Francais
!!!OTL: Guitare
!!!LYR: Victor Hugo
!!!OPR: Feuilles d'Album
!!!ONM: No. 4
!!!ENC: Jacob Pegg
!!!YOR: Romantic French Song 1830-1870 -David Tunley, ed.,
!!!YOR: New York: Garland Publishing, Inc., 1995, Vol. 4
!!!ODT: 1866/
!!NB: Vocal melody and text only encoded.
!!NB: First instance of melodic material only encoded.
**kern	**silbe
*clef G2	*
*k[b-e-a-]	*
*M3/4	*
!!created: 5/11/03 23:47
!!proofed and posted: 5/12/03 9:25
!!edit time: 49 min.
=6	=6
{8g	{Tra,
4cc	la,
8ee-	la,
8dd	la,
8ee-	la,
=7	=7
(16cc	la,
16dd	|
16ee-	|
16dd	|
16cc	|
16bn	|
16cc	|
16a-	|
16g	|
16f#	|
16g	|
16an	|
=8	=8
16b-	|
16an	|
16b-	|
16cc	|
2dd)}	|}
=9	=9
8r	.
{8ee-	{Com-
(8b-	-ment,
8g)	|
8f	di-
8g	-saient~
=10	=10
[4e-	~ils,
8e-]}	|}
8r	.
4r	.
!!11-13 like 6-8
=14	=14
8r	.
{8ff	{A-
(8dd	-vec
8b-)	|
8cc	nos
8f	na-
=15	=15
(8.f	-cel-
16b-)	|
4b-}	-les,}
4r	.
=16	=16
8r	.
{(16cc#	{Com-
16dd)	|
8g	-ment,
(16cc#	dis-
16dd)	-ai-
8g	-ent~
16dd}	~ils,}
16r	.
=17	=17
{8.ee-	{A-
16ff	-vec
8ee-	nos
8b-	na-
(8g	-cel-
8b-	|
=18	=18
16ee-	|
16ff	|
16gg	|
16ff	|
16ee-	|
16ff	|
16dd	|
16ff	|
4ee-)}	-les,}
=19	=19
8r	.
{(16cc#	{Fuir
16dd	|
8g)	|
(16cc#	les
16dd)	|
8g	al-
8gg	-gua-
=20	=20
[2een	-zils?
8een]}	|}
8r	.
=21	=21
{(16ff	{Ra-
16cc	|
16an	|
16cc)	|
(4.ff	-mez,
8cc)	|
=22	=22
(16ff	ra-
16cc	|
16an	|
16cc)	|
[4ff	-mez,
8ff]}	|}
8r	.
=23	=23
{(16ff	{ra-
16gg	|
16ee-	|
16gg)	|
(16ff	-mez,
16gg	|
16ee-	|
16gg)	|
(16ff	dis-
16ee-)	|
(16dd	-ai-
16cc)	-ent~
=24	=24
(16b-	~el-
16cc	|
16dd	|
16ee-	|
16ff	|
16een	|
16ff	|
16aa-	|
16gg	|
16ff	|
16ee-	|
16dd	|
=25	=25
16ee-	|
16ff	|
16dd	|
16ee-	|
[2cc)	-les.
=26	=26
8cc]}	|}
8r	.
4r	.
4r	.
!!mm 31-55 identical to 6-30
=56	=56
*k[]	*
{8g	{Tra,
4cc	la,
8ee	la,
8dd	la,
8ee	la,
=57	=57
(16cc	la,
16dd	|
16ee	|
16dd	|
16cc	|
16b	|
16cc	|
16a	|
16g	|
16f#	|
16g	|
16a	|
=58	=58
16b	|
16a	|
16b	|
16cc	|
2dd)}	|}
=59	=59
8r	.
{8ee	{Com-
(8b	-ment,
8g)	|
8f#	dis-
8g	-aient~
=60	=60
[4e	~ils,
8e]}	|}
8r	.
4r	.
!!61-63 same as 56-58
=64	=64
8r	.
{(8ff#	{En-
8dd)	|
8b	-chan-
8cc#	-ter
8f#	les
=65	=65
(8.f#	bel-
16b)	|
4b}	-les,}
4r	.
=66	=66
!! through accidentals, 
!! mm66-end is identical despite the different key
*-	*-
